X: 31939
T: Pearl O'Shaughnessy's
R: barndance
M: 4/4
K: Gmajor
|:Bc|d2 d2 d^ced|B2 B2 BAGB|d2 c2 cAFA|e2 d2 dcBc|
d2 d2 d^ced|B2 B2 BAGB|d2 c2 cAFA|G2 GF G2:|
|:dc|B2 G2 GBdB|c2 A2 A2 cB|A2 F2 F2 DF|GFGB e2 dc|
B2 G2 GBdB|c2 A2 A2 cB|AGFE DcBA|G2 GF G2:|
|:Bc|d2 ed B2 g2|fege c3g|f2 ed f2 ed|B2 AG B2 Bc|
d2 ed B2 g2|fege c3g|f2 ed ^cdef|g2 b2 g2:|
|:Bc|d2 b2 b2 ag|a2 e2 e2 ag|f2 ed f2 ed|B2 AG B2 Bc|
d2 b2 b2 ag|a2 e2 e2 ag|f2 ed ^cdef|g2 b2 g2:|

